X:1
T: Miss Mary Walker (of Peterhead)
C:J. Scott Skinner
R:Reel
Q: 232
K:Bb
M:4/4
L:1/8
F|:B1/2B1/2B dB ec AF|B1/2B1/2B df bf dB|e1/2e1/2e Ge d1/2d1/2d Fd|c1/2c1/2c Ec BA GF|
B1/2B1/2B dB ec AF|B1/2B1/2B df bf dB|e1/2e1/2e Ge d1/2d1/2d Fd|cf =ef cA Fc|
d1/2c1/2B bB gB fB|df ga bf dB|A1/2G1/2F eF dF cF|Ac d=e fc AF|
d1/2c1/2B bB gB fB|df ga bf dB|gf ed cB AG|1FE DC B,F GA:|2FE DC B,3||
